public/icon/icon-logo-mini.svg

<svg width="37" height="36" viewBox="0 0 37 36" fill="none" xmlns="http://www.w3.org/2000/svg">
<path fill-rule="evenodd" clip-rule="evenodd" d="M12.9155 6.68424H22.7294C23.4884 6.68424 24.1085 6.1008 24.1085 5.37932V1.80839C24.1085 1.0843 23.4884 0.5 22.7294 0.5H12.9155C12.1557 0.5 11.5374 1.0843 11.5374 1.80839V5.37932C11.5365 6.1008 12.1557 6.68424 12.9155 6.68424Z" fill="#ABB910"/>
<path fill-rule="evenodd" clip-rule="evenodd" d="M20.0356 14.3783V17.9466C20.0356 18.6707 20.6548 19.2585 21.4137 19.2585H31.8391C32.6015 19.2585 33.2155 18.6707 33.2155 17.9466V14.3783C33.2155 13.6533 32.6015 13.0725 31.8391 13.0725H21.4137C20.6548 13.0716 20.0356 13.6525 20.0356 14.3783Z" fill="#ABB910"/>
<path fill-rule="evenodd" clip-rule="evenodd" d="M3.10049 28.9259H10.8786C11.6411 28.9259 12.2577 28.3416 12.2577 27.6175V24.0501C12.2577 23.3251 11.6411 22.7391 10.8786 22.7391H3.10049C2.34155 22.7391 1.72321 23.3251 1.72321 24.0501V27.6175C1.72233 28.3425 2.34155 28.9259 3.10049 28.9259Z" fill="#ABB910"/>
<path fill-rule="evenodd" clip-rule="evenodd" d="M34.5459 20.0329H20.7442C20.1197 20.0329 19.6001 19.6987 19.2953 19.2255H19.0193V28.0604C19.0193 28.9668 19.7905 29.7004 20.7433 29.7004H22.0708V25.2083C22.0708 24.4816 22.6909 23.8982 23.4498 23.8982H28.1756C28.938 23.8982 29.5538 24.4816 29.5538 25.2083V29.7004H34.545C35.4952 29.7004 36.2699 28.9668 36.2699 28.0604V19.2255H35.9913C35.6926 19.6987 35.1712 20.0329 34.5459 20.0329Z" fill="#ABB910"/>
<path fill-rule="evenodd" clip-rule="evenodd" d="M13.2271 29.7004H1.72227C1.09345 29.7004 0.564191 29.3626 0.262881 28.8834H0V33.8634C0 34.7698 0.772925 35.5 1.72227 35.5H13.2262C14.1781 35.5 14.9511 34.769 14.9511 33.8634V28.8834H14.6847C14.386 29.3626 13.8576 29.7004 13.2271 29.7004Z" fill="#ABB910"/>
<path fill-rule="evenodd" clip-rule="evenodd" d="M25.1231 12.2946V6.65305H24.8497C24.551 7.12622 24.027 7.45787 23.3991 7.45787H10.5668C9.94232 7.45787 9.4218 7.12535 9.12049 6.65305H8.84625V21.9647H15.2611C16.2122 21.9647 16.9834 22.6948 16.9834 23.6021V25.8334H18.0034V13.9312C18.0034 13.0274 18.7738 12.2946 19.724 12.2946H25.1231Z" fill="#ABB910"/>
</svg>

<svg width="37" height="36" fill="none" xmlns="http://www.w3.org/2000/svg"><path fill-rule="evenodd" clip-rule="evenodd" d="M12.915 6.684h9.814c.76 0 1.38-.583 1.38-1.305V1.81c0-.725-.62-1.309-1.38-1.309h-9.813c-.76 0-1.379.584-1.379 1.308V5.38c0 .722.619 1.305 1.378 1.305zm7.121 7.694v3.569c0 .724.619 1.312 1.378 1.312h10.425c.763 0 1.377-.588 1.377-1.312v-3.569c0-.725-.614-1.306-1.377-1.306H21.414c-.76 0-1.378.58-1.378 1.306zM3.1 28.926h7.779c.762 0 1.379-.584 1.379-1.308V24.05c0-.725-.617-1.31-1.38-1.31H3.1c-.758 0-1.377.585-1.377 1.31v3.567c0 .726.619 1.309 1.377 1.309z" fill="#ABB910"/><path fill-rule="evenodd" clip-rule="evenodd" d="M34.546 20.033H20.744a1.718 1.718 0 01-1.449-.808h-.276v8.835c0 .907.772 1.64 1.724 1.64h1.328v-4.492c0-.726.62-1.31 1.379-1.31h4.726c.762 0 1.378.584 1.378 1.31V29.7h4.991c.95 0 1.725-.733 1.725-1.64v-8.834h-.279c-.298.473-.82.807-1.445.807zM13.227 29.7H1.722a1.72 1.72 0 01-1.46-.817H0v4.98C0 34.77.773 35.5 1.722 35.5h11.504c.952 0 1.725-.731 1.725-1.637v-4.98h-.266a1.71 1.71 0 01-1.458.817z" fill="#ABB910"/><path fill-rule="evenodd" clip-rule="evenodd" d="M25.123 12.295V6.653h-.273a1.706 1.706 0 01-1.45.805H10.566a1.709 1.709 0 01-1.447-.805h-.274v15.312h6.415c.951 0 1.722.73 1.722 1.637v2.231h1.02V13.931c0-.904.77-1.636 1.721-1.636h5.4z" fill="#ABB910"/></svg>
